X:1
T: Blue Bonnets over the Border
C:
R:Reel
Q: 232
K:A
M:4/4
L:1/8
|:c|AB cd ef ec|Bc de ff f2|AB cd ec af|ec dB AA Ac|
AB cd ef ec|Bc de ff f2|AB cd ec af|ec dB AA Ad|
cA Bc BG FE|cA Bc FF Fd|cA Bc BG FE|ec dB AA Ad|
cA Bc BG FE|cA Bc FF Fd|cA Bc BG FE|ec dB AA Af1/2g1/2|
ae cA ae cA|BA Bc FF Fg|ae cA ae cA|dB ec AA Ag|
ae cA ae cA|BA Bc FF Fg|ae cA ef1/2g1/2|af ec dB AA A:|
